X:6
T:Come Upstairs with Me
Z: id:dc-slipjig-5
M:9/8
L:1/8
K:G Major
G2c BAG Bcd|ecA ABG FED|G2c BAG Bcd|efg faf g3:|!
fed d2g fed|ecA ABG FED|fed d2g fed|efg faf g3|!
fed d2g fed|ecA ABG FED|G2c BAG Bcd|efg faf g3|]!

